X: 39178
T: Swing Dance, The
R: jig
M: 6/8
K: Gmajor
M:5/8
G2B AG|A2B de|g2e dB|dBA AB|G2B AG|DEG GE|1 D2B DE|GAB AG:|2 B2G AB|A2B de||
|:g2e dB|dBG Bd|g2e dB|d2G Bd|g2e dB|dBG AB|A2G AB|1 GAB de:|2 A2B AG||
|:DEE DE|GAA DE|DEE DE|ABB DE|DEE DE|GAA DE|1 BAG EG|BAG EG:|2 BAG EG|BAG AB||

